X:7
T:Scotch Mary
R:reel
S:Niall Keegan
M:C
L:1/8
K:D
B|ceed ceed|cAEF G3 B|ceed ceed|cAGB A3:|!
g|a2 ag eged|cdef g3 g|a2 ag eged|cAGB A3 g|!
a2 ag eged|cdef g2 fg|afge fded|cAGB A3||
